src/img/svg/adv3.svg

<svg width="22" height="22" viewBox="0 0 22 22" fill="none" xmlns="http://www.w3.org/2000/svg">
<path d="M1.28256 12.1678C1.10812 11.803 1.01758 11.4038 1.01758 10.9994C1.01758 10.5951 1.10812 10.1959 1.28256 9.83107C1.43423 9.51257 1.69423 9.20707 2.21423 8.59607C2.42223 8.35232 2.52623 8.23098 2.61289 8.10098C2.81228 7.8036 2.95073 7.46963 3.02023 7.1184C3.05056 6.96457 3.06356 6.80532 3.08848 6.48682C3.15239 5.68732 3.18381 5.28757 3.30189 4.95282C3.43675 4.57168 3.65522 4.22557 3.94129 3.93988C4.22735 3.65419 4.57375 3.43617 4.95506 3.30182C5.28873 3.18373 5.68848 3.15123 6.48906 3.0884C6.80756 3.0624 6.96573 3.0494 7.11956 3.01907C7.47117 2.94971 7.80552 2.81126 8.10323 2.61173C8.23323 2.52507 8.35456 2.42215 8.59723 2.21415C9.20823 1.69415 9.51373 1.43415 9.83223 1.2814C10.197 1.10696 10.5962 1.01642 11.0006 1.01642C11.405 1.01642 11.8042 1.10696 12.169 1.2814C12.4886 1.43307 12.7941 1.69307 13.404 2.21415C13.6477 2.42215 13.7691 2.52507 13.8991 2.61173C14.1968 2.81126 14.5311 2.94971 14.8827 3.01907C15.0355 3.0494 15.1947 3.0624 15.5132 3.0884C16.3138 3.15123 16.7136 3.18373 17.0472 3.30182C17.4283 3.43631 17.7745 3.65439 18.0604 3.94007C18.3463 4.22576 18.5646 4.57179 18.6993 4.95282M3.30189 17.0461C3.43664 17.4271 3.65495 17.7731 3.94081 18.0588C4.22668 18.3445 4.57286 18.5626 4.95398 18.6971C5.28764 18.8162 5.68739 18.8476 6.48798 18.9105C6.80648 18.9365 6.96464 18.9495 7.11848 18.9798C7.47009 19.0492 7.80443 19.1876 8.10214 19.3872C8.23214 19.4738 8.35348 19.5767 8.59614 19.7847C9.20714 20.3047 9.51264 20.5647 9.83114 20.7175C10.1959 20.8919 10.5952 20.9825 10.9995 20.9825C11.4039 20.9825 11.8031 20.8919 12.1679 20.7175C12.4875 20.5658 12.793 20.3058 13.4029 19.7847C13.5604 19.6431 13.7257 19.5104 13.898 19.3872C14.1957 19.1876 14.53 19.0492 14.8816 18.9798C15.0344 18.9495 15.1936 18.9365 15.5121 18.9105C16.3127 18.8476 16.7125 18.8152 17.0461 18.6971C17.4273 18.5626 17.7734 18.3445 18.0593 18.0588C18.3452 17.7731 18.5635 17.4271 18.6982 17.0461C18.8163 16.7124 18.8477 16.3116 18.9116 15.5121C18.9366 15.1936 18.9496 15.0343 18.9799 14.8805C19.0492 14.5295 19.1879 14.1947 19.3872 13.8979C19.4739 13.7679 19.5779 13.6466 19.7848 13.4028C20.3048 12.7918 20.5659 12.4863 20.7186 12.1678C20.8931 11.803 20.9836 11.4038 20.9836 10.9994C20.9836 10.5951 20.8931 10.1959 20.7186 9.83107M7.75006 14.25L14.2501 7.74998" stroke="#435DFF" stroke-width="1.5" stroke-linecap="round"/>
<path d="M14.7913 13.7083C14.7913 13.9956 14.6772 14.2712 14.474 14.4743C14.2709 14.6775 13.9953 14.7916 13.708 14.7916C13.4207 14.7916 13.1451 14.6775 12.942 14.4743C12.7388 14.2712 12.6247 13.9956 12.6247 13.7083C12.6247 13.421 12.7388 13.1454 12.942 12.9423C13.1451 12.7391 13.4207 12.625 13.708 12.625C13.9953 12.625 14.2709 12.7391 14.474 12.9423C14.6772 13.1454 14.7913 13.421 14.7913 13.7083ZM9.37467 8.29165C9.37467 8.57896 9.26054 8.85451 9.05737 9.05768C8.85421 9.26084 8.57866 9.37498 8.29134 9.37498C8.00402 9.37498 7.72847 9.26084 7.52531 9.05768C7.32214 8.85451 7.20801 8.57896 7.20801 8.29165C7.20801 8.00433 7.32214 7.72878 7.52531 7.52561C7.72847 7.32245 8.00402 7.20831 8.29134 7.20831C8.57866 7.20831 8.85421 7.32245 9.05737 7.52561C9.26054 7.72878 9.37467 8.00433 9.37467 8.29165Z" fill="#435DFF"/>
</svg>

<svg width="22" height="22" viewBox="0 0 22 22" fill="none" xmlns="http://www.w3.org/2000/svg"><path d="M1.283 12.168a2.708 2.708 0 0 1 0-2.337c.151-.318.411-.624.931-1.235.208-.244.312-.365.399-.495.2-.297.338-.631.407-.983a5.62 5.62 0 0 0 .068-.631c.064-.8.096-1.2.214-1.534a2.708 2.708 0 0 1 1.653-1.651c.334-.118.733-.15 1.534-.214.319-.026.477-.039.63-.069.352-.07.687-.208.984-.407.13-.087.252-.19.494-.398.611-.52.917-.78 1.235-.933a2.708 2.708 0 0 1 2.337 0c.32.152.625.412 1.235.933.244.208.365.311.495.398.298.2.632.338.984.407.153.03.312.043.63.07.8.062 1.2.095 1.534.213a2.709 2.709 0 0 1 1.652 1.65M3.302 17.047a2.709 2.709 0 0 0 1.652 1.651c.334.12.733.15 1.534.213.318.026.477.04.63.07.352.07.686.208.984.407.13.087.251.19.494.398.611.52.917.78 1.235.933a2.709 2.709 0 0 0 2.337 0c.32-.152.625-.412 1.235-.933a5.56 5.56 0 0 1 .495-.398c.298-.2.632-.338.984-.407.152-.03.312-.044.63-.07.8-.062 1.2-.095 1.534-.213a2.708 2.708 0 0 0 1.652-1.65c.118-.335.15-.735.214-1.535.025-.318.038-.478.068-.632.07-.35.208-.685.407-.982.087-.13.19-.251.398-.495.52-.611.78-.917.934-1.235a2.707 2.707 0 0 0 0-2.337M7.75 14.25l6.5-6.5" stroke="#435DFF" stroke-width="1.5" stroke-linecap="round"/><path d="M14.791 13.708a1.083 1.083 0 1 1-2.166 0 1.083 1.083 0 0 1 2.166 0ZM9.375 8.292a1.083 1.083 0 1 1-2.167 0 1.083 1.083 0 0 1 2.167 0Z" fill="#435DFF"/></svg>
